public/img/paperclip.svg

<svg width="20" height="20" viewBox="0 0 20 20" fill="none" xmlns="http://www.w3.org/2000/svg">
<path d="M18.487 2.31344C16.4696 0.267914 13.1981 0.267914 11.1808 2.31344L1.13524 12.499C-0.378414 14.0338 -0.378414 16.5206 1.13524 18.0555C2.38285 19.3205 4.26462 19.5247 5.73568 18.7037C5.88935 18.6958 6.04046 18.6369 6.15802 18.519L16.2035 8.33343C17.2122 7.31069 17.2122 5.6528 16.2035 4.63006C15.1948 3.60733 13.5598 3.60733 12.5511 4.63006L4.33178 12.964C4.07991 13.2193 4.07991 13.6345 4.33178 13.8898C4.58364 14.1452 4.99306 14.1452 5.24487 13.8898L13.4642 5.55589C13.9692 5.04386 14.7867 5.04386 15.2904 5.55589C15.7954 6.06792 15.7954 6.89684 15.2904 7.4076L5.70082 17.1309C4.69215 18.1536 3.05706 18.1536 2.04839 17.1309C1.03972 16.1082 1.03972 14.4503 2.04839 13.4275L12.0939 3.23927C13.6075 1.7045 16.0602 1.7045 17.5739 3.23927C19.0875 4.77404 19.0875 7.26085 17.5739 8.79568L8.44146 18.0555C8.18959 18.3108 8.18959 18.726 8.44146 18.9813C8.69333 19.2367 9.10274 19.2367 9.35455 18.9813L18.487 9.72151C20.5043 7.67603 20.5043 4.35897 18.487 2.31344Z" fill="#BBC3CF"/>
</svg>

<svg width="20" height="20" fill="none" xmlns="http://www.w3.org/2000/svg"><path d="M18.487 2.313a5.116 5.116 0 0 0-7.306 0L1.135 12.5a3.967 3.967 0 0 0 0 5.556 3.824 3.824 0 0 0 4.6.649.636.636 0 0 0 .423-.185L16.203 8.333a2.644 2.644 0 0 0 0-3.703 2.557 2.557 0 0 0-3.652 0l-8.22 8.334a.662.662 0 0 0 0 .926.64.64 0 0 0 .914 0l8.22-8.334a1.278 1.278 0 0 1 1.825 0 1.321 1.321 0 0 1 0 1.852L5.7 17.13a2.558 2.558 0 0 1-3.652 0 2.644 2.644 0 0 1 0-3.704L12.094 3.24a3.837 3.837 0 0 1 5.48 0 3.967 3.967 0 0 1 0 5.557l-9.133 9.26a.662.662 0 0 0 0 .925.64.64 0 0 0 .914 0l9.132-9.26c2.017-2.045 2.017-5.362 0-7.408z" fill="#BBC3CF"/></svg>
